img/icons/svg/icon__instagram.svg

<svg width="15" height="15" viewBox="0 0 15 15" fill="none" xmlns="http://www.w3.org/2000/svg">
<g clip-path="url(#clip0)">
<path d="M14.9853 4.41004C14.9502 3.61303 14.8213 3.0651 14.6367 2.5903C14.4462 2.08632 14.1532 1.63511 13.7693 1.26001C13.3942 0.879078 12.94 0.583076 12.4418 0.395585C11.9643 0.210956 11.4192 0.0820702 10.6222 0.0469299C9.81925 0.00881367 9.56434 0 7.52782 0C5.49129 0 5.23638 0.00881367 4.4364 0.0439539C3.63939 0.0790941 3.09146 0.208094 2.61678 0.392609C2.11269 0.583076 1.66147 0.876102 1.28638 1.26001C0.905443 1.63511 0.609556 2.0893 0.421951 2.58744C0.237323 3.0651 0.108437 3.61006 0.073297 4.40707C0.0351808 5.21002 0.0263672 5.46493 0.0263672 7.50147C0.0263672 9.538 0.0351808 9.79291 0.070321 10.5929C0.105461 11.3899 0.234461 11.9378 0.41909 12.4126C0.609556 12.9166 0.905443 13.3678 1.28638 13.7429C1.66147 14.1239 2.11566 14.4199 2.6138 14.6073C3.09146 14.792 3.63642 14.9209 4.43354 14.956C5.23341 14.9913 5.48843 15 7.52496 15C9.56148 15 9.81639 14.9913 10.6164 14.956C11.4134 14.9209 11.9613 14.792 12.436 14.6073C13.4441 14.2176 14.2411 13.4206 14.6308 12.4126C14.8153 11.935 14.9443 11.3899 14.9795 10.5929C15.0146 9.79291 15.0234 9.538 15.0234 7.50147C15.0234 5.46493 15.0205 5.21002 14.9853 4.41004ZM13.6345 10.5343C13.6023 11.2668 13.4792 11.6624 13.3766 11.9262C13.1246 12.5796 12.606 13.0983 11.9525 13.3503C11.6888 13.4529 11.2903 13.5759 10.5606 13.6081C9.76946 13.6433 9.53218 13.652 7.53079 13.652C5.52941 13.652 5.28915 13.6433 4.50084 13.6081C3.76828 13.5759 3.37269 13.4529 3.10897 13.3503C2.78378 13.2301 2.48778 13.0397 2.24752 12.7906C1.99845 12.5473 1.80798 12.2543 1.6878 11.9291C1.58524 11.6654 1.46219 11.2668 1.43003 10.5373C1.39477 9.74609 1.38607 9.50869 1.38607 7.5073C1.38607 5.50591 1.39477 5.26565 1.43003 4.47746C1.46219 3.7449 1.58524 3.34931 1.6878 3.08559C1.80798 2.76028 1.99845 2.46439 2.2505 2.22402C2.49362 1.97495 2.78664 1.78448 3.11195 1.66441C3.37567 1.56185 3.77423 1.4388 4.50382 1.40652C5.29499 1.37138 5.53238 1.36257 7.53365 1.36257C9.53802 1.36257 9.7753 1.37138 10.5636 1.40652C11.2962 1.4388 11.6918 1.56185 11.9555 1.66441C12.2807 1.78448 12.5767 1.97495 12.8169 2.22402C13.066 2.46726 13.2565 2.76028 13.3766 3.08559C13.4792 3.34931 13.6023 3.74776 13.6345 4.47746C13.6697 5.26863 13.6785 5.50591 13.6785 7.5073C13.6785 9.50869 13.6697 9.74311 13.6345 10.5343Z" fill="white"/>
<path d="M7.5281 3.64819C5.4008 3.64819 3.6748 5.37407 3.6748 7.50148C3.6748 9.6289 5.4008 11.3548 7.5281 11.3548C9.65551 11.3548 11.3814 9.6289 11.3814 7.50148C11.3814 5.37407 9.65551 3.64819 7.5281 3.64819ZM7.5281 10.001C6.14801 10.001 5.02856 8.88168 5.02856 7.50148C5.02856 6.12129 6.14801 5.00195 7.5281 5.00195C8.90829 5.00195 10.0276 6.12129 10.0276 7.50148C10.0276 8.88168 8.90829 10.001 7.5281 10.001V10.001Z" fill="white"/>
<path d="M12.434 3.49576C12.434 3.99253 12.0312 4.39533 11.5343 4.39533C11.0376 4.39533 10.6348 3.99253 10.6348 3.49576C10.6348 2.99887 11.0376 2.59619 11.5343 2.59619C12.0312 2.59619 12.434 2.99887 12.434 3.49576V3.49576Z" fill="white"/>
</g>
<defs>
<clipPath id="clip0">
<rect width="15" height="15" fill="white"/>
</clipPath>
</defs>
</svg>

<svg width="15" height="15" viewBox="0 0 15 15" fill="none" xmlns="http://www.w3.org/2000/svg"><g clip-path="url(#clip0)" fill="#fff"><path d="M14.985 4.41c-.035-.797-.164-1.345-.348-1.82a3.661 3.661 0 00-.868-1.33 3.691 3.691 0 00-1.327-.864c-.478-.185-1.023-.314-1.82-.35C9.82.01 9.564 0 7.528 0 5.49 0 5.236.009 4.436.044c-.797.035-1.345.164-1.82.349a3.66 3.66 0 00-1.33.867c-.38.375-.676.83-.864 1.327-.185.478-.314 1.023-.349 1.82C.035 5.21.026 5.465.026 7.501c0 2.037.01 2.292.044 3.092.035.797.164 1.345.35 1.82.19.504.485.955.866 1.33.375.38.83.677 1.328.864.477.185 1.022.314 1.82.349.8.035 1.054.044 3.091.044 2.036 0 2.291-.009 3.091-.044.797-.035 1.345-.164 1.82-.349a3.836 3.836 0 002.195-2.194c.184-.478.313-1.023.348-1.82.036-.8.044-1.055.044-3.092 0-2.036-.002-2.291-.038-3.091zm-1.35 6.124c-.033.733-.156 1.128-.258 1.392a2.488 2.488 0 01-1.425 1.424c-.263.103-.662.226-1.391.258-.792.035-1.029.044-3.03.044-2.002 0-2.242-.009-3.03-.044-.733-.032-1.128-.155-1.392-.258a2.308 2.308 0 01-.861-.56 2.333 2.333 0 01-.56-.86c-.103-.265-.226-.663-.258-1.393-.035-.79-.044-1.028-.044-3.03 0-2.001.009-2.241.044-3.03.032-.732.155-1.128.258-1.391.12-.326.31-.622.563-.862.243-.25.536-.44.861-.56.264-.102.662-.225 1.392-.257.791-.036 1.028-.044 3.03-.044 2.004 0 2.241.008 3.03.044.732.032 1.128.155 1.392.257.325.12.62.311.86.56.25.243.44.536.56.862.103.263.226.662.258 1.391.036.792.044 1.029.044 3.03 0 2.002-.008 2.236-.044 3.027z"/><path d="M7.528 3.648a3.854 3.854 0 000 7.707 3.854 3.854 0 000-7.707zm0 6.353a2.5 2.5 0 110-5 2.5 2.5 0 010 5zm4.906-6.505a.9.9 0 11-1.8 0 .9.9 0 011.8 0z"/></g><defs><clipPath id="clip0"><path fill="#fff" d="M0 0h15v15H0z"/></clipPath></defs></svg>
